X: 2340
M: C
L: 1/8
K: A
(ucd) |\
(3(efe) uc>uA va>vaug>uf | e>f^d>f e>cA>c |\
(3(efe) c>A a>ag>f | e>f^d>f e>cA>c |\
|: uc2 |\
(3(ded) uB>uG E>GB>c | A>cf>^d e2c2 |\
(3(ded) B>G E>GB>c | A>EC>F E2c2 |\
(3(ded) B>G E>GB>c | A>cf>^d e2a2 |\
g>fe>d c>BA>G | A2a2A2 :|


